X:1
T:I've A Friend
%%score { ( 1 2 ) | ( 3 4 ) }
L:1/8
Q:1/4=72
M:4/4
K:F
V:1 treble 
V:2 treble 
V:3 bass 
V:4 bass 
V:1
"^Adagio" c3 B | A2 CC D2 F2 | A2 A2 c3 B | A2 ^G>A B2 A2 | D6 D2 | F3 F E2 F2 | d2 c2 x2 A2 | %7
 B3 D E2 G2 | F4 |] %9
V:2
 E3 D | C2 CC B,2 _D2 | C2 C2 E3 E | F2 F>F F2 F2 | D6 B,2 | D3 D D2 D2 | F2 F2 z2 F2 | %7
 G3 D C2 C2 | C4 |] %9
V:3
 G,3 G, | A,2 F,F, F,2 F,2 | F,2 F,2 G,3 C | C2 =B,>C D2 C2 | B,6 F,2 | B,3 B, ^G,2 G,2 | %6
 A,2 A,2 x2 D2 | D3 G, G,2 B,2 | A,4 |] %9
V:4
 C,3 C, | F,2 A,,A,, B,,2 B,,2 | F,2 F,2 C,3 C, | F,2 F,>F, F,2 F,2 | B,,6 B,,2 | %5
 B,,3 B,, =B,,2 B,,2 | C,2 C,2 z2 D,2 | G,,3 B,, C,2 C,2 | F,,4 |] %9

